docs/.gitbook/assets/icon-airpods-16@dark.svg

<svg width="32" height="32" viewBox="0 0 16 16" fill="none" xmlns="http://www.w3.org/2000/svg">
<rect x="0" y="0" width="16" height="16" fill="#181c1f"/>
<path fill-rule="evenodd" clip-rule="evenodd" d="M5.8125 4.75C5.8125 3.50736 4.80514 2.5 3.5625 2.5H2.84586C2.84238 2.50081 2.83795 2.50195 2.8327 2.50353C2.80431 2.51204 2.75066 2.53342 2.68922 2.58872C2.58326 2.68409 2.3125 3.01221 2.3125 4C2.3125 4.98779 2.58326 5.31591 2.68922 5.41128C2.75066 5.46658 2.80431 5.48796 2.8327 5.49647C2.83907 5.49838 2.84423 5.49966 2.84794 5.50047C3.27784 5.51189 3.68511 5.72907 3.96986 5.98795C4.27251 6.26309 4.5625 6.70046 4.5625 7.25V12.875C4.5625 13.2202 4.84232 13.5 5.1875 13.5C5.53268 13.5 5.8125 13.2202 5.8125 12.875V4.75ZM2.8125 1V1.75C2.8125 1 2.81183 1 2.81116 1L2.8098 1L2.80696 1.00002L2.80088 1.00009L2.78715 1.00038C2.77731 1.00067 2.76607 1.00114 2.75354 1.0019C2.72851 1.0034 2.69812 1.00602 2.66315 1.01052C2.59339 1.01949 2.50402 1.03608 2.40168 1.06679C2.19569 1.12858 1.93684 1.24783 1.68578 1.47378C1.16674 1.94091 0.8125 2.73779 0.8125 4C0.8125 5.26221 1.16674 6.05909 1.68578 6.52622C1.93684 6.75217 2.19569 6.87142 2.40168 6.93321C2.50402 6.96392 2.59339 6.98051 2.66315 6.98948C2.69812 6.99398 2.72851 6.9966 2.75354 6.9981C2.76607 6.99886 2.77731 6.99933 2.78715 6.99962L2.79131 6.99971L2.79849 6.99987C2.80372 7.00123 2.81558 7.00475 2.83385 7.01294C2.87221 7.03014 2.91814 7.05903 2.96083 7.09784C3.05629 7.18462 3.0625 7.24725 3.0625 7.25V12.875C3.0625 14.0486 4.01389 15 5.1875 15C6.36111 15 7.3125 14.0486 7.3125 12.875V4.75C7.3125 2.67893 5.63357 1 3.5625 1H2.8125ZM9.8125 4.75C9.8125 3.50736 10.8199 2.5 12.0625 2.5H12.7791C12.7826 2.50081 12.787 2.50195 12.7923 2.50353C12.8207 2.51204 12.8743 2.53342 12.9358 2.58872C13.0417 2.68409 13.3125 3.01221 13.3125 4C13.3125 4.98779 13.0417 5.31591 12.9358 5.41128C12.8743 5.46658 12.8207 5.48796 12.7923 5.49647C12.7859 5.49839 12.7808 5.49966 12.777 5.50047C12.3481 5.51195 11.9411 5.72964 11.6569 5.98744C11.3547 6.26168 11.0625 6.69908 11.0625 7.25V12.875C11.0625 13.2202 10.7827 13.5 10.4375 13.5C10.0923 13.5 9.8125 13.2202 9.8125 12.875V4.75ZM12.8125 1V1.75C12.8125 1 12.8132 1 12.8138 1L12.8152 1L12.818 1.00002L12.8241 1.00009L12.8379 1.00038C12.8477 1.00067 12.8589 1.00114 12.8715 1.0019C12.8965 1.0034 12.9269 1.00602 12.9619 1.01052C13.0316 1.01949 13.121 1.03608 13.2233 1.06679C13.4293 1.12858 13.6882 1.24783 13.9392 1.47378C14.4583 1.94091 14.8125 2.73779 14.8125 4C14.8125 5.26221 14.4583 6.05909 13.9392 6.52622C13.6882 6.75217 13.4293 6.87142 13.2233 6.93321C13.121 6.96392 13.0316 6.98051 12.9619 6.98948C12.9269 6.99398 12.8965 6.9966 12.8715 6.9981C12.8589 6.99886 12.8477 6.99933 12.8379 6.99962L12.8337 6.99971L12.8276 6.99985C12.8222 7.00128 12.8106 7.00483 12.7929 7.01278C12.7543 7.03011 12.7079 7.05924 12.6648 7.09835C12.5682 7.18604 12.5625 7.24863 12.5625 7.25V12.875C12.5625 14.0486 11.6111 15 10.4375 15C9.2639 15 8.3125 14.0486 8.3125 12.875V4.75C8.3125 2.67893 9.99143 1 12.0625 1H12.8125Z" fill="#fff"/>
</svg>

<svg xmlns="http://www.w3.org/2000/svg" width="32" height="32" fill="none" viewBox="0 0 16 16"><path fill="#181c1f" d="M0 0h16v16H0z"/><path fill="#fff" fill-rule="evenodd" d="M5.813 4.75a2.25 2.25 0 0 0-2.25-2.25h-.717l-.013.004a.4.4 0 0 0-.144.085c-.106.095-.377.423-.377 1.411s.271 1.316.377 1.411a.4.4 0 0 0 .159.09c.43.01.837.228 1.122.487.303.275.592.712.592 1.262v5.625a.625.625 0 1 0 1.25 0zm-3-3.75v.75C2.813 1 2.812 1 2.81 1h-.024a1 1 0 0 0-.124.01c-.07.01-.159.026-.261.057a1.9 1.9 0 0 0-.716.407C1.166 1.94.813 2.738.813 4s.354 2.06.873 2.526c.25.226.51.345.716.407A1.6 1.6 0 0 0 2.787 7h.011l.036.013a.5.5 0 0 1 .127.085c.095.087.102.15.102.152v5.625a2.125 2.125 0 0 0 4.25 0V4.75A3.75 3.75 0 0 0 3.563 1zm7 3.75a2.25 2.25 0 0 1 2.25-2.25h.716l.013.004a.4.4 0 0 1 .144.085c.106.095.377.423.377 1.411s-.271 1.316-.377 1.411a.4.4 0 0 1-.159.09c-.429.01-.836.229-1.12.486-.302.275-.594.712-.594 1.263v5.625a.625.625 0 1 1-1.25 0zm3-3.75v.75zh.025a1 1 0 0 1 .124.01 1.87 1.87 0 0 1 .977.464c.52.467.874 1.264.874 2.526s-.355 2.06-.874 2.526c-.25.226-.51.345-.716.407a1.6 1.6 0 0 1-.385.067h-.01l-.035.013a.5.5 0 0 0-.128.085c-.097.088-.102.15-.102.152v5.625a2.125 2.125 0 0 1-4.25 0V4.75A3.75 3.75 0 0 1 12.063 1z" clip-rule="evenodd"/></svg>
